X:1
T:Das Walt’ Gott Vater, LM
T:Daniel Vetter, 1713, adapted by Johann S. Bach
T:Das Walt’ Gott Vater, LM
T:Public Domain
C:Daniel Vetter, 1713, adapted by Johann S. Bach
Z:Public Domain
%%score ( 1 2 ) ( 3 4 )
L:1/8
M:none
K:Eb
V:1 treble 
V:2 treble 
V:3 bass 
V:4 bass 
V:1
 [B,E]2 | [EG]2 [EB]2 [DB]2 [DG]2 | (CB,) [B,F]2 [B,G]2 | [B,E]2 [EG]2 [FB]2 (G=A) [Bd]2 | %4
 (ed) z =A [FB]2 [FB]2 | FE/D/ [EB]2 [Ec]2 [EB]2 | (FB,)(B,E) (ED) [FA]2 | (GA) [EB]2 [EA]2 (GF) | %8
 C z z D E2 x2 |] %9
V:2
 x2 | x8 | E2 x4 | x6 c2 x2 | B2 c2 x4 | G2 x6 | A2 G2 F2 x2 | E2 x3 D2 x | E2 E2 (F2 E2) |] %9
V:3
 [E,G,]2 | [E,B,]2 (G,,A,,) [B,,F,]2 [=B,,G,]2 | [C,G,]2 [D,F,]2 E,2 | %3
 [E,G,]2 [E,G,]2 z D, [C,E]2 (F,E,) | [E,G,G]2 [F,C]2 [B,,D]2 [D,B,]2 | %5
 [E,B,]2 (G,E,) (B,A,)(A,G,) | E,D,(G,>A,) [B,,B,]2 [D,B,]2 | [E,B,]2 [G,,B,]2 [A,,C]2 (B,A,) | %8
 [C,G,]2 (B,>A,) [E,G,]2 x2 |] %9
V:4
 x2 | x2 =B,2 x4 | x4 E,2 | x4 (B,2 x D2) x | x8 | x2 B,2 C,2 E,2 | F,2 E,2 x4 | x6 B,,2 | %8
 x2 B,,2 x4 |] %9

